src/assets/sticker/m6.svg

<svg width="84" height="70" viewBox="0 0 84 70" fill="none" xmlns="http://www.w3.org/2000/svg">
<g id="m6">
<g id="icon-sticker-m6-inside">
<g id="Group 158">
<path id="Union" fill-rule="evenodd" clip-rule="evenodd" d="M41.5417 12.1739C33.9331 12.1739 16.8896 13.3913 6.54175 33.4783C8.31621 34.3655 29.9125 46.6573 21.7591 48.6956C19.453 49.2722 15.6722 48.6956 15.6722 48.6956L23.2809 57.8261C23.2809 57.8261 27.5878 58.8881 30.1287 60.1087C35.4451 62.6626 41.5417 70 41.5417 70C41.5417 70 47.6384 62.6626 52.9548 60.1087C55.4957 58.8881 59.8026 57.8261 59.8026 57.8261L67.4113 48.6956C67.4113 48.6956 63.6305 49.2722 61.3244 48.6956C53.171 46.6573 74.7673 34.3655 76.5417 33.4783C66.1939 13.3913 49.1504 12.1739 41.5417 12.1739Z" fill="#212121"/>
<path id="Union_2" fill-rule="evenodd" clip-rule="evenodd" d="M35.4548 56.3043C35.4548 56.3043 36.4161 57.1997 36.9765 57.826C39.6347 60.7969 41.5418 66.9565 41.5418 66.9565C41.5418 66.9565 43.4488 60.7969 46.107 57.826C46.6674 57.1997 47.6287 56.3043 47.6287 56.3043C47.6287 56.3043 45.6342 55.5984 44.5852 54.7826C42.8939 53.4671 41.5418 50.2174 41.5418 50.2174C41.5418 50.2174 40.1896 53.4671 38.4983 54.7826C37.4494 55.5984 35.4548 56.3043 35.4548 56.3043Z" fill="url(#paint0_linear_349_184)"/>
<g id="left">
<g id="Group 156">
<path id="Vector 223" d="M18.7157 31.9565C21.7591 36.2174 20.9983 38.8043 20.2374 39.5652L23.2809 44.1304C23.7881 41.3406 23.5852 35 18.7157 31.9565Z" fill="url(#paint1_linear_349_184)"/>
<path id="Vector 220" d="M27.8461 16.7391C27.8461 16.7391 25.6587 22.2438 23.2809 25.1087C19.2777 29.932 9.58524 33.4783 9.58524 33.4783" stroke="url(#paint2_linear_349_184)" stroke-width="0.76087"/>
<path id="Vector 219" d="M24.8026 16.7391C24.8026 16.7391 22.0378 21.6901 18.7157 24.3478C15.3936 27.0055 9.58524 28.913 9.58524 28.913" stroke="url(#paint3_linear_349_184)" stroke-width="0.76087"/>
</g>
<path id="Intersect" fill-rule="evenodd" clip-rule="evenodd" d="M29.3792 13.7511C21.7252 15.9535 12.8781 21.1782 6.54175 33.4782C8.31621 34.3655 29.9125 46.6573 21.7591 48.6956C19.453 49.2721 15.6722 48.6956 15.6722 48.6956L23.2809 57.826C23.2809 57.826 27.5878 58.888 30.1287 60.1087C34.5702 62.2423 39.5564 67.7146 41.0771 69.4579L32.4113 59.3478H35.4548L30.8896 56.3043H24.8026L20.2374 50.2174H26.3244C26.0707 49.4565 26.02 47.7826 27.8461 47.1739C23.2884 40.6629 15.3878 35.8234 11.7726 33.609C11.1631 33.2356 10.6754 32.9369 10.3461 32.7174C11.5635 24.1956 22.2664 18.2608 27.8461 16.7391C28.3533 17.7536 29.9765 19.7826 32.4113 19.7826C30.6114 17.9826 29.6492 15.0491 29.3792 13.7511Z" fill="url(#paint4_linear_349_184)"/>
</g>
<g id="Group 157">
<path id="Vector 223_2" d="M64.3678 31.9565C61.3243 36.2174 62.0852 38.8043 62.8461 39.5652L59.8026 44.1304C59.2954 41.3406 59.4983 35 64.3678 31.9565Z" fill="url(#paint5_linear_349_184)"/>
<path id="Vector 220_2" d="M55.2374 16.7391C55.2374 16.7391 57.4248 22.2438 59.8026 25.1087C63.8058 29.932 73.4983 33.4783 73.4983 33.4783" stroke="url(#paint6_linear_349_184)" stroke-width="0.76087"/>
<path id="Vector 219_2" d="M58.2809 16.7391C58.2809 16.7391 61.0457 21.6901 64.3678 24.3478C67.6899 27.0055 73.4983 28.913 73.4983 28.913" stroke="url(#paint7_linear_349_184)" stroke-width="0.76087"/>
</g>
<g id="right">
<path id="Intersect_2" fill-rule="evenodd" clip-rule="evenodd" d="M53.7043 13.7511C61.3583 15.9535 70.2054 21.1782 76.5417 33.4783C74.7673 34.3655 53.171 46.6573 61.3244 48.6956C63.6305 49.2722 67.4113 48.6956 67.4113 48.6956L59.8026 57.8261C59.8026 57.8261 55.4957 58.8881 52.9548 60.1087C48.5134 62.2423 43.5275 67.7142 42.0066 69.4577L50.6722 59.3478H47.6287L52.1939 56.3044H58.2809L62.8461 50.2174H56.7591C57.0128 49.4565 57.0635 47.7826 55.2374 47.1739C59.7951 40.663 67.6957 35.8235 71.3109 33.609C71.9204 33.2357 72.4081 32.9369 72.7374 32.7174C71.52 24.1957 60.8171 18.2609 55.2374 16.7391C54.7302 17.7536 53.107 19.7826 50.6722 19.7826C52.4721 17.9826 53.4343 15.0492 53.7043 13.7511Z" fill="url(#paint8_linear_349_184)"/>
<path id="Union_3" fill-rule="evenodd" clip-rule="evenodd" d="M41.5418 12.1739V22.8261L43.0635 15.2174C44.5853 15.2174 47.9331 15.8261 49.1505 18.2609C50.8295 16.1621 51.6401 14.4252 51.9816 13.2996C47.8306 12.3156 44.1373 12.1739 41.5418 12.1739ZM41.5417 12.1739V22.8261L40.02 15.2174C38.4982 15.2174 35.1504 15.8261 33.933 18.2609C32.254 16.1621 31.4434 14.4252 31.1019 13.2996C35.2528 12.3156 38.9462 12.1739 41.5417 12.1739Z" fill="url(#paint9_linear_349_184)"/>
</g>
<path id="Union_4" fill-rule="evenodd" clip-rule="evenodd" d="M24.8026 13.6957L29.3678 6.08696L32.4113 9.13044L33.933 3.04348L38.4983 6.08696L41.5417 0L44.5852 6.08696L49.1504 3.04348L50.6722 9.13044L53.7157 6.08696L58.2809 13.6957C58.2809 13.6957 53.1798 12.0073 49.9113 11.413C46.6428 10.8188 41.5417 10.6522 41.5417 10.6522C41.5417 10.6522 36.4407 10.8188 33.1722 11.413C29.9037 12.0073 24.8026 13.6957 24.8026 13.6957Z" fill="url(#paint10_linear_349_184)"/>
<path id="Union_5" fill-rule="evenodd" clip-rule="evenodd" d="M40.9708 4.86937C41.2426 4.13273 41.5418 3.04348 41.5418 3.04348C41.5418 3.04348 41.8409 4.13273 42.1127 4.86937C42.1792 5.04984 42.2442 5.20914 42.3026 5.32608C42.5998 5.92036 43.0635 6.08695 43.0635 6.08695C43.0635 6.08695 42.5998 6.25355 42.3026 6.84782C42.2442 6.96476 42.1792 7.12407 42.1127 7.30454C41.8409 8.04118 41.5418 9.13043 41.5418 9.13043C41.5418 9.13043 41.2426 8.04118 40.9708 7.30454C40.9043 7.12407 40.8394 6.96476 40.7809 6.84782C40.4838 6.25355 40.02 6.08695 40.02 6.08695C40.02 6.08695 40.4838 5.92036 40.7809 5.32608C40.8394 5.20914 40.9043 5.04984 40.9708 4.86937Z" fill="#212121"/>
<g id="Group 155">
<g id="M6" filter="url(#filter0_f_349_184)">
<path d="M39.4784 39.1043L36.4382 44.5333H33.3981L30.3579 39.1043V47.5734H26.449V32.3725H30.575L34.9181 40.4073L39.2613 32.3725H43.3872V47.5734H39.4784V39.1043ZM49.6933 32.1553C51.6766 32.1553 54.0653 32.3001 56.8594 32.5897V35.5213C56.0632 35.4778 55.3827 35.4416 54.8181 35.4127C54.268 35.3693 53.812 35.3403 53.4501 35.3258C53.1026 35.2969 52.7552 35.2679 52.4077 35.239C51.8286 35.21 51.293 35.1955 50.8008 35.1955C49.9176 35.1955 49.4761 35.5575 49.4761 36.2813V38.2357C50.8804 37.9462 52.1109 37.8014 53.1678 37.8014H54.6878C55.6723 37.8014 56.4613 38.0982 57.0549 38.6918C57.6484 39.2853 57.9452 40.0743 57.9452 41.0588V43.8818C57.9452 45.1992 57.6122 46.1836 56.9463 46.8351C56.2803 47.4721 55.238 47.7906 53.8192 47.7906H49.6933C48.2745 47.7906 47.2322 47.4721 46.5662 46.8351C45.9003 46.1836 45.5673 45.1992 45.5673 43.8818V36.2813C45.5673 34.8626 45.9003 33.8202 46.5662 33.1543C47.2322 32.4883 48.2745 32.1553 49.6933 32.1553ZM52.082 40.8416C51.5318 40.8416 51.0251 40.8706 50.5619 40.9285C50.1131 40.9864 49.7512 41.0298 49.4761 41.0588V43.4475C49.4761 44.3161 49.9104 44.7504 50.779 44.7504H52.7334C53.6021 44.7504 54.0364 44.3161 54.0364 43.4475V41.6016C54.0364 41.3845 53.964 41.2035 53.8192 41.0588C53.6745 40.914 53.4935 40.8416 53.2763 40.8416H52.082Z" fill="url(#paint11_linear_349_184)"/>
</g>
<path id="M6_2" d="M39.4784 39.1043L36.4382 44.5333H33.3981L30.3579 39.1043V47.5734H26.449V32.3725H30.575L34.9181 40.4073L39.2613 32.3725H43.3872V47.5734H39.4784V39.1043ZM49.6933 32.1553C51.6766 32.1553 54.0653 32.3001 56.8594 32.5897V35.5213C56.0632 35.4778 55.3827 35.4416 54.8181 35.4127C54.268 35.3693 53.812 35.3403 53.4501 35.3258C53.1026 35.2969 52.7552 35.2679 52.4077 35.239C51.8286 35.21 51.293 35.1955 50.8008 35.1955C49.9176 35.1955 49.4761 35.5575 49.4761 36.2813V38.2357C50.8804 37.9462 52.1109 37.8014 53.1678 37.8014H54.6878C55.6723 37.8014 56.4613 38.0982 57.0549 38.6918C57.6484 39.2853 57.9452 40.0743 57.9452 41.0588V43.8818C57.9452 45.1992 57.6122 46.1836 56.9463 46.8351C56.2803 47.4721 55.238 47.7906 53.8192 47.7906H49.6933C48.2745 47.7906 47.2322 47.4721 46.5662 46.8351C45.9003 46.1836 45.5673 45.1992 45.5673 43.8818V36.2813C45.5673 34.8626 45.9003 33.8202 46.5662 33.1543C47.2322 32.4883 48.2745 32.1553 49.6933 32.1553ZM52.082 40.8416C51.5318 40.8416 51.0251 40.8706 50.5619 40.9285C50.1131 40.9864 49.7512 41.0298 49.4761 41.0588V43.4475C49.4761 44.3161 49.9104 44.7504 50.779 44.7504H52.7334C53.6021 44.7504 54.0364 44.3161 54.0364 43.4475V41.6016C54.0364 41.3845 53.964 41.2035 53.8192 41.0588C53.6745 40.914 53.4935 40.8416 53.2763 40.8416H52.082Z" fill="white"/>
</g>
<g id="Group 228">
<path id="2024" d="M35.3375 26.1336C35.3375 26.6715 35.1097 27.1366 34.6541 27.529C34.5148 27.6492 34.363 27.7694 34.1984 27.8897L32.1577 29.3609H35.3375V30.6898H30.2118V28.8863L33.6289 26.4184V25.9438C33.6289 25.5641 33.4391 25.3743 33.0594 25.3743H30.4017V24.0454H33.4391C34.1035 24.0454 34.5844 24.1973 34.8819 24.501C35.1856 24.7984 35.3375 25.2794 35.3375 25.9438V26.1336ZM39.8921 25.8489C39.8921 25.4692 39.7023 25.2794 39.3226 25.2794H38.2785C37.8988 25.2794 37.709 25.4692 37.709 25.8489V28.8863C37.709 29.266 37.8988 29.4558 38.2785 29.4558H39.3226C39.7023 29.4558 39.8921 29.266 39.8921 28.8863V25.8489ZM41.6007 28.8863C41.6007 29.5507 41.4488 30.0348 41.1451 30.3386C40.8477 30.636 40.3667 30.7847 39.7023 30.7847H37.8988C37.2344 30.7847 36.7503 30.636 36.4466 30.3386C36.1491 30.0348 36.0004 29.5507 36.0004 28.8863V25.8489C36.0004 25.1844 36.1491 24.7035 36.4466 24.4061C36.7503 24.1024 37.2344 23.9505 37.8988 23.9505H39.7023C40.3667 23.9505 40.8477 24.1024 41.1451 24.4061C41.4488 24.7035 41.6007 25.1844 41.6007 25.8489V28.8863ZM47.2951 26.1336C47.2951 26.6715 47.0673 27.1366 46.6117 27.529C46.4725 27.6492 46.3206 27.7694 46.1561 27.8897L44.1153 29.3609H47.2951V30.6898H42.1695V28.8863L45.5866 26.4184V25.9438C45.5866 25.5641 45.3967 25.3743 45.017 25.3743H42.3593V24.0454H45.3967C46.0612 24.0454 46.5421 24.1973 46.8395 24.501C47.1432 24.7984 47.2951 25.2794 47.2951 25.9438V26.1336ZM50.9002 29.3609H47.3882V28.032L49.6662 24.0454H51.5646L49.2866 28.032H50.9002V26.6082H52.6088V28.032H53.2732V29.3609H52.6088V30.6898H50.9002V29.3609Z" fill="#F5F1EE"/>
</g>
</g>
</g>
</g>
<defs>
<filter id="filter0_f_349_184" x="20.5143" y="26.2206" width="43.3657" height="27.5048" filterUnits="userSpaceOnUse" color-interpolation-filters="sRGB">
<feFlood flood-opacity="0" result="BackgroundImageFix"/>
<feBlend mode="normal" in="SourceGraphic" in2="BackgroundImageFix" result="shape"/>
<feGaussianBlur stdDeviation="2.96739" result="effect1_foregroundBlur_349_184"/>
</filter>
<linearGradient id="paint0_linear_349_184" x1="41.5418" y1="50.2174" x2="41.5418" y2="66.9565" gradientUnits="userSpaceOnUse">
<stop stop-color="#AB750F"/>
<stop offset="0.516" stop-color="#D8A956"/>
<stop offset="1" stop-color="#AB750F"/>
</linearGradient>
<linearGradient id="paint1_linear_349_184" x1="18.4934" y1="38.0435" x2="23.5574" y2="38.0435" gradientUnits="userSpaceOnUse">
<stop stop-color="#AB750F"/>
<stop offset="0.516" stop-color="#D8A956"/>
<stop offset="1" stop-color="#AB750F"/>
</linearGradient>
<linearGradient id="paint2_linear_349_184" x1="8.73158" y1="25.1088" x2="28.1801" y2="25.1088" gradientUnits="userSpaceOnUse">
<stop stop-color="#AB750F"/>
<stop offset="0.516" stop-color="#D8A956"/>
<stop offset="1" stop-color="#AB750F"/>
</linearGradient>
<linearGradient id="paint3_linear_349_184" x1="8.87385" y1="22.8261" x2="25.081" y2="22.8261" gradientUnits="userSpaceOnUse">
<stop stop-color="#AB750F"/>
<stop offset="0.516" stop-color="#D8A956"/>
<stop offset="1" stop-color="#AB750F"/>
</linearGradient>
<linearGradient id="paint4_linear_349_184" x1="4.9273" y1="41.6047" x2="41.7087" y2="41.6047" gradientUnits="userSpaceOnUse">
<stop stop-color="#AB750F"/>
<stop offset="0.516" stop-color="#D8A956"/>
<stop offset="1" stop-color="#AB750F"/>
</linearGradient>
<linearGradient id="paint5_linear_349_184" x1="64.5901" y1="38.0435" x2="59.5261" y2="38.0435" gradientUnits="userSpaceOnUse">
<stop stop-color="#AB750F"/>
<stop offset="0.516" stop-color="#D8A956"/>
<stop offset="1" stop-color="#AB750F"/>
</linearGradient>
<linearGradient id="paint6_linear_349_184" x1="74.3519" y1="25.1088" x2="54.9034" y2="25.1088" gradientUnits="userSpaceOnUse">
<stop stop-color="#AB750F"/>
<stop offset="0.516" stop-color="#D8A956"/>
<stop offset="1" stop-color="#AB750F"/>
</linearGradient>
<linearGradient id="paint7_linear_349_184" x1="74.2096" y1="22.8261" x2="58.0025" y2="22.8261" gradientUnits="userSpaceOnUse">
<stop stop-color="#AB750F"/>
<stop offset="0.516" stop-color="#D8A956"/>
<stop offset="1" stop-color="#AB750F"/>
</linearGradient>
<linearGradient id="paint8_linear_349_184" x1="78.1562" y1="41.6047" x2="41.3748" y2="41.6047" gradientUnits="userSpaceOnUse">
<stop stop-color="#AB750F"/>
<stop offset="0.516" stop-color="#D8A956"/>
<stop offset="1" stop-color="#AB750F"/>
</linearGradient>
<linearGradient id="paint9_linear_349_184" x1="52.9577" y1="17.5" x2="30.7199" y2="17.5" gradientUnits="userSpaceOnUse">
<stop stop-color="#AB750F"/>
<stop offset="0.516" stop-color="#D8A956"/>
<stop offset="1" stop-color="#AB750F"/>
</linearGradient>
<linearGradient id="paint10_linear_349_184" x1="23.2376" y1="6.84788" x2="58.8933" y2="6.84788" gradientUnits="userSpaceOnUse">
<stop stop-color="#AB750F"/>
<stop offset="0.516" stop-color="#D8A956"/>
<stop offset="1" stop-color="#AB750F"/>
</linearGradient>
<linearGradient id="paint11_linear_349_184" x1="23.1721" y1="40.0735" x2="59.3835" y2="40.0735" gradientUnits="userSpaceOnUse">
<stop stop-color="#AB750F"/>
<stop offset="0.516" stop-color="#D8A956"/>
<stop offset="1" stop-color="#AB750F"/>
</linearGradient>
</defs>
</svg>

<svg xmlns="http://www.w3.org/2000/svg" width="84" height="70" fill="none" xmlns:v="https://vecta.io/nano"><g fill-rule="evenodd"><path d="M41.542 12.174c-7.609 0-24.652 1.217-35 21.304 1.774.887 23.371 13.179 15.217 15.217-2.306.577-6.087 0-6.087 0l7.609 9.13s4.307 1.062 6.848 2.283C35.445 62.663 41.542 70 41.542 70s6.097-7.337 11.413-9.891c2.541-1.221 6.848-2.283 6.848-2.283l7.609-9.13s-3.781.577-6.087 0c-8.153-2.038 13.443-14.33 15.217-15.217-10.348-20.087-27.391-21.304-35-21.304z" fill="#212121"/><path d="M35.455 56.304l1.522 1.522c2.658 2.971 4.565 9.131 4.565 9.131s1.907-6.16 4.565-9.131c.56-.626 1.522-1.522 1.522-1.522s-1.995-.706-3.044-1.522c-1.691-1.315-3.043-4.565-3.043-4.565s-1.352 3.25-3.044 4.565c-1.049.816-3.044 1.522-3.044 1.522z" fill="url(#B)"/></g><path d="M18.716 31.957c3.043 4.261 2.283 6.848 1.522 7.609l3.043 4.565c.507-2.79.304-9.13-4.565-12.174z" fill="url(#C)"/><g stroke-width=".761"><path d="M27.8461 16.7391C27.8461 16.7391 25.6587 22.2438 23.2809 25.1087C19.2777 29.932 9.58524 33.4783 9.58524 33.4783" stroke="url(#D)"/><path d="M24.8026 16.7391C24.8026 16.7391 22.0378 21.6901 18.7157 24.3478C15.3936 27.0055 9.58524 28.913 9.58524 28.913" stroke="url(#E)"/></g><path fill-rule="evenodd" d="M29.379 13.751c-7.654 2.202-16.501 7.427-22.837 19.727 1.774.887 23.371 13.179 15.217 15.217-2.306.577-6.087 0-6.087 0l7.609 9.13s4.307 1.062 6.848 2.283c4.442 2.134 9.428 7.606 10.948 9.349l-8.666-10.11h3.044l-4.565-3.044h-6.087l-4.565-6.087h6.087c-.254-.761-.304-2.435 1.522-3.043-4.558-6.511-12.458-11.351-16.073-13.565l-1.427-.892c1.217-8.522 11.92-14.457 17.5-15.978.507 1.014 2.13 3.043 4.565 3.043-1.8-1.8-2.762-4.733-3.032-6.031z" fill="url(#F)"/><path d="M64.368 31.957c-3.044 4.261-2.283 6.848-1.522 7.609l-3.044 4.565c-.507-2.79-.304-9.13 4.565-12.174z" fill="url(#G)"/><g stroke-width=".761"><path d="M55.2374 16.7391C55.2374 16.7391 57.4248 22.2438 59.8026 25.1087C63.8058 29.932 73.4983 33.4783 73.4983 33.4783" stroke="url(#H)"/><path d="M58.2809 16.7391C58.2809 16.7391 61.0457 21.6901 64.3678 24.3478C67.6899 27.0055 73.4983 28.913 73.4983 28.913" stroke="url(#I)"/></g><g fill-rule="evenodd"><path d="M53.704 13.751c7.654 2.202 16.501 7.427 22.837 19.727-1.774.887-23.371 13.179-15.217 15.217 2.306.577 6.087 0 6.087 0l-7.609 9.13s-4.307 1.062-6.848 2.283c-4.441 2.134-9.427 7.606-10.948 9.349l8.666-10.11h-3.043l4.565-3.043h6.087l4.565-6.087h-6.087c.254-.761.304-2.435-1.522-3.043 4.558-6.511 12.458-11.35 16.074-13.565l1.426-.892c-1.217-8.522-11.92-14.456-17.5-15.978-.507 1.014-2.13 3.043-4.565 3.043 1.8-1.8 2.762-4.733 3.032-6.031z" fill="url(#J)"/><path d="M41.542 12.174v10.652l1.522-7.609c1.522 0 4.87.609 6.087 3.044 1.679-2.099 2.49-3.836 2.831-4.961-4.151-.984-7.844-1.126-10.44-1.126zm0 0v10.652l-1.522-7.609c-1.522 0-4.87.609-6.087 3.044-1.679-2.099-2.49-3.836-2.831-4.961 4.151-.984 7.844-1.126 10.44-1.126z" fill="url(#K)"/><path d="M24.803 13.696l4.565-7.609 3.043 3.043 1.522-6.087 4.565 3.043L41.542 0l3.044 6.087 4.565-3.043 1.522 6.087 3.044-3.043 4.565 7.609s-5.101-1.688-8.37-2.283-8.37-.761-8.37-.761-5.101.167-8.37.761-8.37 2.283-8.37 2.283z" fill="url(#L)"/><path d="M40.971 4.869c.272-.737.571-1.826.571-1.826l.571 1.826.19.457c.297.594.761.761.761.761s-.464.167-.761.761c-.058.117-.123.276-.19.457l-.571 1.826-.571-1.826-.19-.457c-.297-.594-.761-.761-.761-.761s.464-.167.761-.761c.058-.117.123-.276.19-.457z" fill="#212121"/></g><g filter="url(#A)"><use href="#N" fill="url(#M)"/></g><use href="#N" fill="#fff"/><path d="M35.338 26.134c0 .538-.228 1.003-.683 1.395l-.456.361-2.041 1.471h3.18v1.329h-5.126v-1.804l3.417-2.468v-.475c0-.38-.19-.569-.57-.569h-2.658v-1.329h3.037c.664 0 1.145.152 1.443.456.304.297.456.778.456 1.443v.19zm4.555-.285c0-.38-.19-.57-.569-.57h-1.044c-.38 0-.569.19-.569.57v3.037c0 .38.19.57.569.57h1.044c.38 0 .569-.19.569-.57v-3.037zm1.709 3.037c0 .664-.152 1.149-.456 1.452-.297.297-.778.446-1.443.446h-1.803c-.664 0-1.148-.149-1.452-.446-.297-.304-.446-.788-.446-1.452v-3.037c0-.665.149-1.145.446-1.443.304-.304.788-.456 1.452-.456h1.803c.664 0 1.145.152 1.443.456.304.297.456.778.456 1.443v3.037zm5.694-2.753c0 .538-.228 1.003-.683 1.395l-.456.361-2.041 1.471h3.18v1.329H42.17v-1.804l3.417-2.468v-.475c0-.38-.19-.569-.57-.569h-2.658v-1.329h3.037c.664 0 1.145.152 1.443.456.304.297.456.778.456 1.443v.19zm3.605 3.227h-3.512v-1.329l2.278-3.987h1.898l-2.278 3.987H50.9v-1.424h1.709v1.424h.664v1.329h-.664v1.329H50.9v-1.329z" fill="#f5f1ee"/><defs><filter id="A" x="20.514" y="26.221" width="43.366" height="27.505" filterUnits="userSpaceOnUse" color-interpolation-filters="sRGB"><feFlood flood-opacity="0"/><feBlend in="SourceGraphic"/><feGaussianBlur stdDeviation="2.967"/></filter><linearGradient id="B" x1="41.542" y1="50.217" x2="41.542" y2="66.957" href="#O"><stop stop-color="#ab750f"/><stop offset=".516" stop-color="#d8a956"/><stop offset="1" stop-color="#ab750f"/></linearGradient><linearGradient id="C" x1="18.493" y1="38.044" x2="23.557" y2="38.044" href="#O"><stop stop-color="#ab750f"/><stop offset=".516" stop-color="#d8a956"/><stop offset="1" stop-color="#ab750f"/></linearGradient><linearGradient id="D" x1="8.732" y1="25.109" x2="28.18" y2="25.109" href="#O"><stop stop-color="#ab750f"/><stop offset=".516" stop-color="#d8a956"/><stop offset="1" stop-color="#ab750f"/></linearGradient><linearGradient id="E" x1="8.874" y1="22.826" x2="25.081" y2="22.826" href="#O"><stop stop-color="#ab750f"/><stop offset=".516" stop-color="#d8a956"/><stop offset="1" stop-color="#ab750f"/></linearGradient><linearGradient id="F" x1="4.927" y1="41.605" x2="41.709" y2="41.605" href="#O"><stop stop-color="#ab750f"/><stop offset=".516" stop-color="#d8a956"/><stop offset="1" stop-color="#ab750f"/></linearGradient><linearGradient id="G" x1="64.59" y1="38.044" x2="59.526" y2="38.044" href="#O"><stop stop-color="#ab750f"/><stop offset=".516" stop-color="#d8a956"/><stop offset="1" stop-color="#ab750f"/></linearGradient><linearGradient id="H" x1="74.352" y1="25.109" x2="54.903" y2="25.109" href="#O"><stop stop-color="#ab750f"/><stop offset=".516" stop-color="#d8a956"/><stop offset="1" stop-color="#ab750f"/></linearGradient><linearGradient id="I" x1="74.21" y1="22.826" x2="58.003" y2="22.826" href="#O"><stop stop-color="#ab750f"/><stop offset=".516" stop-color="#d8a956"/><stop offset="1" stop-color="#ab750f"/></linearGradient><linearGradient id="J" x1="78.156" y1="41.605" x2="41.375" y2="41.605" href="#O"><stop stop-color="#ab750f"/><stop offset=".516" stop-color="#d8a956"/><stop offset="1" stop-color="#ab750f"/></linearGradient><linearGradient id="K" x1="52.958" y1="17.5" x2="30.72" y2="17.5" href="#O"><stop stop-color="#ab750f"/><stop offset=".516" stop-color="#d8a956"/><stop offset="1" stop-color="#ab750f"/></linearGradient><linearGradient id="L" x1="23.238" y1="6.848" x2="58.893" y2="6.848" href="#O"><stop stop-color="#ab750f"/><stop offset=".516" stop-color="#d8a956"/><stop offset="1" stop-color="#ab750f"/></linearGradient><linearGradient id="M" x1="23.172" y1="40.074" x2="59.384" y2="40.074" href="#O"><stop stop-color="#ab750f"/><stop offset=".516" stop-color="#d8a956"/><stop offset="1" stop-color="#ab750f"/></linearGradient><path id="N" d="M39.478 39.104l-3.04 5.429h-3.04l-3.04-5.429v8.469h-3.909V32.373h4.126l4.343 8.035 4.343-8.035h4.126v15.201h-3.909v-8.469zm10.215-6.949c1.983 0 4.372.145 7.166.434v2.932l-2.041-.109-1.368-.087-1.042-.087-1.607-.043c-.883 0-1.325.362-1.325 1.086v1.954c1.404-.29 2.635-.434 3.692-.434h1.52c.984 0 1.773.297 2.367.89s.89 1.383.89 2.367v2.823c0 1.317-.333 2.302-.999 2.953-.666.637-1.708.956-3.127.956h-4.126c-1.419 0-2.461-.319-3.127-.956-.666-.651-.999-1.636-.999-2.953v-7.6c0-1.419.333-2.461.999-3.127s1.708-.999 3.127-.999zm2.389 8.686a12.3 12.3 0 0 0-1.52.087l-1.086.13v2.389c0 .869.434 1.303 1.303 1.303h1.954c.869 0 1.303-.434 1.303-1.303v-1.846c0-.217-.072-.398-.217-.543s-.326-.217-.543-.217h-1.194z"/><linearGradient id="O" gradientUnits="userSpaceOnUse"/></defs></svg>
